X:19096
T:Xiraldilla (CT 468) (Arrg.)
R:Xiraldilla
C:Tradicional
S:Música Tradicional Asturiana, (C) Tello & Tito. Asturies, 2001.
S:http://pagina.de/MusTradAst <telloytito@asturies.org>
N:Xiraldilla, transcrita y comunicada por D. Eugenio García Manso, de Navia, quien dice que esta canción era corriente hace muchos años, pero que hoy apenas es recordada por las gentes de Navia.
O:Navia
A:Asturies
G:Arrg.
Z:Cancioneru de Torner 468
M:2/4
L:1/8
Q:1/4=160
W:El caballo pinto y blanco
W:me lo ha robado un francés;
W:el caballo pinto y blanco,
W:no sé si lo encontraré.
K:C
|"Am"AB cd|"Am"e2 A2|"Em"B2 "Am"A2|
"Am"AB cd|"Am"e2 "F"f2|"Em"e2 z2|
"F"fg fe|"Dm"d2 f2|"F"f2 "Em"e2|
"G"Bc de|"F"c2 B2|"Am"A2 z2||


